packages/ui-icons/svg/Solid/bullet-list-roman.svg

<svg viewBox="0 0 1920 1920" xmlns="http://www.w3.org/2000/svg">
    <path d="M375 585.675h93.5V185H375v400.675Zm265.225-53h1280v-225h-1280v225Zm-264.95 652h93.5V784h-93.5v400.675Zm-185.05 0h93.5V784h-93.5v400.675Zm450-86.999h1280V872.675h-1280v225.001Zm-265 636.999h93.499v-400.676h-93.499v400.676Zm-184 0h93.5v-400.676h-93.5v400.676Zm-183.225 0h93.5v-400.676H8v400.676Zm632.225-74h1280v-225h-1280v225Z" fill-rule="evenodd"/>
</svg>

<svg viewBox="0 0 1920 1920" version="1.1" xmlns="http://www.w3.org/2000/svg">
    <path d="M375,585.675 L468.5,585.675 L468.5,185 L375,185 L375,585.675 Z M640.225,532.675 L1920.225,532.675 L1920.225,307.675 L640.225,307.675 L640.225,532.675 Z M375.275,1184.675 L468.775,1184.675 L468.775,784 L375.275,784 L375.275,1184.675 Z M190.225,1184.675 L283.725,1184.675 L283.725,784 L190.225,784 L190.225,1184.675 Z M640.225,1097.676 L1920.225,1097.676 L1920.225,872.675 L640.225,872.675 L640.225,1097.676 Z M375.225,1734.675 L468.724,1734.675 L468.724,1333.999 L375.225,1333.999 L375.225,1734.675 Z M191.225,1734.675 L284.725,1734.675 L284.725,1333.999 L191.225,1333.999 L191.225,1734.675 Z M8,1734.675 L101.5,1734.675 L101.5,1333.999 L8,1333.999 L8,1734.675 Z M640.225,1660.675 L1920.225,1660.675 L1920.225,1435.675 L640.225,1435.675 L640.225,1660.675 Z" stroke="none" stroke-width="1" fill-rule="evenodd"/>
</svg>
